images/image-mail.svg

<svg width="16" height="11" viewBox="0 0 16 11" fill="none" xmlns="http://www.w3.org/2000/svg">
<path d="M14.5 0H1.50001C0.672854 0 0 0.608544 0 1.35664V9.49644C0 10.2445 0.672854 10.8531 1.50001 10.8531H14.5C15.3271 10.8531 16 10.2445 16 9.49644V1.35664C16 0.608544 15.3271 0 14.5 0ZM14.5 0.904418C14.5679 0.904418 14.6325 0.917165 14.6916 0.939428L8 6.18479L1.30833 0.939428C1.36742 0.917196 1.43204 0.904418 1.49998 0.904418H14.5ZM14.5 9.94863H1.50001C1.22414 9.94863 0.999996 9.74594 0.999996 9.49641V1.89496L7.67236 7.12497C7.76661 7.1987 7.8833 7.23538 8 7.23538C8.1167 7.23538 8.23339 7.19874 8.32764 7.12497L15 1.89496V9.49644C15 9.74594 14.7759 9.94863 14.5 9.94863Z" fill="#757575"/>
</svg>

<svg width="16" height="11" fill="none" xmlns="http://www.w3.org/2000/svg">
  <path d="M14.5 0h-13C.7 0 0 .6 0 1.4v8.1c0 .7.7 1.4 1.5 1.4h13c.8 0 1.5-.7 1.5-1.4V1.4c0-.8-.7-1.4-1.5-1.4zm0 .9h.2L8 6.2 1.3.9h13.2zm0 9h-13c-.3 0-.5-.2-.5-.4V1.9L7.7 7l.3.1h.3L15 1.8v7.6c0 .2-.2.4-.5.4z" fill="#757575"/>
</svg>
